!!!!SEGMENT: pl-gd--ee-1638--006-021_marenzio-luca--il-quinto-libro-de-madrigalia-a-cinque-voci-ma-forsi-non-sapete.krn
!!!cenid: 15xx:903
!!!COM: Marenzio, Luca
!!!COM-rismID:
!!!CDT: ~1553-1599/08/22
!!!CNT: Italian
!!!GTL: Il Quinto libro de madrigalia a cinque voci
!!!OTL: Ma forsi non sapete
!!!OMV: 021
!!!PDT: 1585
!!!AGN:
!!!SMS-siglum: PL-GD
!!!SMS-shelfmark: Ee 1638
!!!SMS-variant:
!!!SMS-altvar:
!!!SMS-shelfwork: 006-021 G
!!!NIFC-rismSourceID: 990039296
!!!NIFC-islandoraID: pl-gd:57883
!!!URL-pdf-islandora: https://repozytorium.nifc.pl/islandora/object/pl-gd%3A57883/datastream/PDF/view
!!!URL-scan: https://polish.musicsources.pl/pl/lokalizacje/galeria/klocki-introligatorskie/655 @EN{Scan on Polish Music Herritage in Open Access Website} @PL{Skany w portalu Dziedzictwo Muzyki Polskiej w otwartym dostępie}
!!!ONB-nifc:
!!!AIN: 1 alto 1 bass 2 soprn 1 tenor
!!!key: d:dor
**kern	**text	**kern	**text	**kern	**text	**kern	**text	**kern	**text
*part5	*part5	*part4	*part4	*part3	*part3	*part2	*part2	*part1	*part1
*staff5	*staff5	*staff4	*staff4	*staff3	*staff3	*staff2	*staff2	*staff1	*staff1
*I"BASSO	*	*I"TENORE	*	*I"QVINTO	*	*I"ALTO	*	*I"CANTO	*
*I'B	*	*I'T	*	*I'V	*	*I'A	*	*I'S	*
*Ibass	*	*Itenor	*	*Isoprn	*	*Ialto	*	*Isoprn	*
*ICvox	*	*ICvox	*	*ICvox	*	*ICvox	*	*Cvox	*
*clefF3	*	*clefC3	*	*clefG2	*	*clefC2	*	*clefG2	*
*k[b-]	*	*k[b-]	*	*k[b-]	*	*k[b-]	*	*k[b-]	*
*d:dor	*	*d:dor	*	*d:dor	*	*d:dor	*	*d:dor	*
*M4/4	*	*M4/4	*	*M4/4	*	*M4/4	*	*M4/4	*
*met(c)	*	*met(c)	*	*met(c)	*	*met(c)	*	*met(c)	*
=1-	=1-	=1-	=1-	=1-	=1-	=1-	=1-	=1-	=1-
!LO:TX:a:t=Seconda parte.	!	!LO:TX:a:t=Seconda parte.	!	!LO:TX:a:t=Seconda parte.	!	!LO:TX:a:t=Seconda parte.	!	!LO:TX:a:t=Seconda parte.	!
0rr	.	2d\	MA	0r	.	0r	.	4r	.
!	!	!	!	!	!	!	!	!LO:TUP:a:problem:LO:TX:a:t=głosy znajdują się na poszczególnych stronach&colon;\nC-688\nA-536\nQ-80\nT-384\nB-232	!
.	.	.	.	.	.	.	.	4a/	MA
.	.	4.d\	for-	.	.	.	.	4.dd\	for-
.	.	8d\	ſe	.	.	.	.	8dd\	-ſe
=2-	=2-	=2-	=2-	=2-	=2-	=2-	=2-	=2-	=2-
.	.	4e\	non	.	.	.	.	4cc\	non
.	.	4f#X\	ſa-	.	.	.	.	4a/	ſa-
.	.	2g\	-pe-	.	.	.	.	2b-/	-pe-
=3-	=3-	=3-	=3-	=3-	=3-	=3-	=3-	=3-	=3-
0	.	1f#X	-te	4r	.	2d/	MA	1a	-te
.	.	.	.	4a/	MA	.	.	.	.
.	.	.	.	4.dd\	for-	4.d/	for-	.	.
.	.	.	.	8dd\	ſe	8d/	ſe	.	.
=4-	=4-	=4-	=4-	=4-	=4-	=4-	=4-	=4-	=4-
.	.	1r	.	4cc\	non	4e/	non	1r	.
.	.	.	.	4a/	ſa-	4f#X\	ſa-	.	.
.	.	.	.	2b-/	-pe-	2g\	-pe-	.	.
=5-	=5-	=5-	=5-	=5-	=5-	=5-	=5-	=5-	=5-
2D/	MA	4r	.	1a	-te	4fny\	-te	4r	.
.	.	4A/	/Ma	.	.	4f\	/Ma	4dd\	/Ma
4.D/	for-	4.d\	for-	.	.	4a\	for-	4.ff\	for-
.	.	.	.	.	.	4d/	-ſe	.	.
8D/	ſe	8d\	ſe	.	.	.	.	8ff\	ſe
=6-	=6-	=6-	=6-	=6-	=6-	=6-	=6-	=6-	=6-
4E/	non	4c/	non	1r	.	4g\	non	4ee\	non
4F#X/	ſa-	4A/	ſa-	.	.	4a\	ſa-	4dd\	ſa-
2G\	-pe-	2B-/	-pe-	.	.	2g\	-pe-	2dd\	-pe-
=7-	=7-	=7-	=7-	=7-	=7-	=7-	=7-	=7-	=7-
!	!	!	!	!	!	!	!	!LO:SIC:v:t=custos dd	!
2D\	-te	2A/	-te/	2r	.	1f	-te/	1dd	-te/
1B-\	ch'an-	1d\	ch'an-	2dd\	ch'an-	.	.	.	.
=8-	=8-	=8-	=8-	=8-	=8-	=8-	=8-	=8-	=8-
!	!	!LO:SIC:v:t=custos g	!	!	!	!	!	!	!
!	!	!	!	!	!	!	!	!LO:LB:g=original	!
.	.	.	.	2ff\	-c' il	2f\	ch'an-	2dd\	ch'an-
!	!	!	!	!	!	!LO:SIC:v:t=custos a	!	!	!
!	!	!LO:LB:g=original	!	!	!	!	!	!	!
2G\	-c' il	2g\	-c' il	2.gg\	Cie-	2b-\	-c' il	2dd\	-c' il
=9-	=9-	=9-	=9-	=9-	=9-	=9-	=9-	=9-	=9-
!	!	!	!	!	!	!LO:LB:g=original	!	!	!
1d	Cie-	2a\	cie-	.	.	1a	cie-	1dd	cie-
.	.	.	.	8ff#X\	.	.	.	.	.
!	!	!	!	!LO:SIC:v:t=custos ff#	!	!	!	!	!
.	.	.	.	8ee\	.	.	.	.	.
!	!	!	!	!LO:LB:g=original	!	!	!	!	!
.	.	2d\	-lo	2ff#X\	.	.	.	.	.
=10-	=10-	=10-	=10-	=10-	=10-	=10-	=10-	=10-	=10-
2c\	-lo	4r	.	2gg\	-lo	2cc\	-lo	2ee\	-lo
.	.	2c/	Non	.	.	.	.	.	.
4A\	No(n)	.	.	4cc\	Non	2r	.	4ff\	Non
2B-\	può	2fny\	può	2b-/	può	.	.	2dd\	può
=11-	=11-	=11-	=11-	=11-	=11-	=11-	=11-	=11-	=11-
.	.	.	.	.	.	0r	.	.	.
!LO:SIC:v:t=custos A	!	!	!	!	!	!	!	!	!
4c\	ſtar	4e\	ſtar	4g/	ſtar	.	.	4ee\	ſtar
!LO:LB:g=original	!	!	!	!	!	!	!	!	!
2A\	ſen-	2c/	ſen-	1cc\	ſen-	.	.	2ff#X\	ſen-
=12-	=12-	=12-	=12-	=12-	=12-	=12-	=12-	=12-	=12-
1G	-za	1d	-za	.	.	.	.	1gg	-za
!	!	!	!	!LO:N:acc=#	!	!	!	!	!
.	.	.	.	2bn/	-za	.	.	.	.
=13-	=13-	=13-	=13-	=13-	=13-	=13-	=13-	=13-	=13-
4r	.	4r	.	4r	.	4r	.	4r	.
4.C/	E	4.c/	E	4.cc\	E	4.g\	E	4.ee\	E
8C/	che	8c/	che	8cc\	che	8g\	che	8ee\	che
4C/	voi	4c/	voi	4cc\	voi	4g\	voi	4ee\	voi
=14-	=14-	=14-	=14-	=14-	=14-	=14-	=14-	=14-	=14-
4.D/	ſia-	4F/	ſia-	4a/	ſia-	4f\	ſia-	4ffny\	ſia-
.	.	4F/	-te	4ffny\	-te	4b-\	-te	4dd\	-te
8E/	-te	.	.	.	.	.	.	.	.
2Fny/	pri-	2c/	pri-	2ff\	pri-	2a\	pri-	2cc\	pri-
=15-	=15-	=15-	=15-	=15-	=15-	=15-	=15-	=15-	=15-
1BB-	-vi	1B-	-vi	0ff	-vi	1b-	-vi	1dd	-vi
=16-	=16-	=16-	=16-	=16-	=16-	=16-	=16-	=16-	=16-
1B-	Per	2r	.	.	.	2r	.	2r	.
.	.	2f\	Per	.	.	2b-\	Per	2dd\	Per
=17-	=17-	=17-	=17-	=17-	=17-	=17-	=17-	=17-	=17-
2.c\	voſ-	2.e\	voſ-	0r	.	2.g\	voſ-	2.cc\	voſ-
!	!	!LO:SIC:v:t=custos e	!	!	!	!	!	!LO:SIC:v:t=custos cc	!
4c\	-tro	4e\	-tro	.	.	4g\	-tro	4cc\	-tro
=18-	=18-	=18-	=18-	=18-	=18-	=18-	=18-	=18-	=18-
!	!	!LO:LB:g=original	!	!	!	!	!	!	!
!	!	!	!	!	!	!	!	!LO:LB:g=original	!
2c\	dop-	2e\	dop-	.	.	2g\	dop-	2cc\	dop-
2G\	-pio	2d\	-pio	.	.	2g\	-pio	2b-/	-pio
=19-	=19-	=19-	=19-	=19-	=19-	=19-	=19-	=19-	=19-
1A	mal	1c#X	mal	2r	.	1e	mal	1a	mal
.	.	.	.	1ee\	de	.	.	.	.
=20-	=20-	=20-	=20-	=20-	=20-	=20-	=20-	=20-	=20-
2A\	di	2cny/	di	.	.	1A	di	2a/	di
1D/	ſan-	1d\	ſan-	1ff\	ſan-	.	.	1a/	ſan-
=21-	=21-	=21-	=21-	=21-	=21-	=21-	=21-	=21-	=21-
.	.	.	.	.	.	2a\	ſan-	.	.
!LO:SIC:v:t=custos C	!	!	!	!	!	!LO:SIC:v:t=custos g	!	!LO:N:acc=#	!
2G\	-ti	2d\	-ti	2dd\	-ti	2g\	-ti	2bn/	-ti
=22-	=22-	=22-	=22-	=22-	=22-	=22-	=22-	=22-	=22-
!	!	!	!	!LO:SIC:v:t=custos dd	!	!	!	!	!
!LO:LB:g=original	!	!	!	!	!	!	!	!	!
!	!	!	!	!	!	!LO:LB:g=original	!	!	!
1C	lu-	1c	lu-	1ee-X	lu-	1g	lu-	1cc	lu-
=23-	=23-	=23-	=23-	=23-	=23-	=23-	=23-	=23-	=23-
!	!	!	!	!	!	!	!	!LO:N:acc=#	!
!	!	!	!	!LO:LB:g=original	!	!	!	!	!
1G	-mi	1d	-mi	1dd	-mi	1g	-mi	1bn	-mi
=24-	=24-	=24-	=24-	=24-	=24-	=24-	=24-	=24-	=24-
1r	.	2f\	Megl'	4r	.	4r	.	1r	.
.	.	.	.	4cc\	Megl'	4a\	Megl'	.	.
.	.	4f\	e-	4.cc\	e-	4a\	e-	.	.
.	.	4f\	-ra	.	.	4a\	-ra	.	.
.	.	.	.	8dd\	-ra	.	.	.	.
=25-	=25-	=25-	=25-	=25-	=25-	=25-	=25-	=25-	=25-
1r	.	4e\	che	4eeny\	che	4g\	che	1r	.
.	.	4f\	ſer-	4cc\	ſe-	2a\	ſe-	.	.
.	.	2d\	-ra-	2ff\	-ra-	.	.	.	.
!	!	!	!	!	!	!LO:N:acc=#	!	!	!
.	.	.	.	.	.	4bn\	-ra-	.	.
=26-	=26-	=26-	=26-	=26-	=26-	=26-	=26-	=26-	=26-
1r	.	4c/	ſt' il	4ee\	-ſte il	4cc\	-ſte il	4r	.
.	.	2B-/	voſ-	2dd\	voſ-	2f\	voſ-	4b-ny/	il
.	.	.	.	.	.	.	.	4b-/	voſ-
.	.	4d\	-tro	4ff\	-tro	4f\	-tro	4a/	-tro
=27-	=27-	=27-	=27-	=27-	=27-	=27-	=27-	=27-	=27-
2r	.	2c/	ve-	2ee\	ve-	2g\	ve-	2cc\	ve-
4r	.	4F/	-lo	2ff\	-lo	4.a\	-lo	4cc\	-lo
!	!	!LO:SIC:v:t=custos A	!	!	!	!	!	!	!
4F/	Megl'	4A/	Me-	.	.	.	.	4ff\	Megl'
.	.	.	.	.	.	8b\	.	.	.
=28-	=28-	=28-	=28-	=28-	=28-	=28-	=28-	=28-	=28-
!	!	!LO:LB:g=original	!	!	!	!	!	!	!
4.F/	e-	4.A/	-gl' e-	2r	.	1cc	.	4ff\	e-
.	.	.	.	.	.	.	.	4ff\	-ra
8G\	-ra	8B-/	-ra	.	.	.	.	.	.
4A\	che	4c/	che	4r	.	.	.	4ee\	che
!	!	!	!	!	!	!	!	!LO:SIC:v:t=custos dd	!
4F/	ſe-	4A/	ſer-	4cc\	ſe-	.	.	4ff\	ſe-
=29-	=29-	=29-	=29-	=29-	=29-	=29-	=29-	=29-	=29-
!	!	!	!	!	!	!	!	!LO:LB:g=original	!
2B-\	-ra-	2d\	-ra-	4.f/	-ra-	0r	.	2dd\	-ra-
.	.	.	.	8g/	.	.	.	.	.
4A\	ſte il	4e\	ſt' il	4a/	.	.	.	4cc\	ſte il
!	!	!	!	!LO:SIC:v:t=custos b-	!	!	!	!	!
2G\	voſ-	2g\	voſ-	4d/	-ſt' il	.	.	2b-/	voſ-
=30-	=30-	=30-	=30-	=30-	=30-	=30-	=30-	=30-	=30-
!	!	!	!	!LO:LB:g=original	!	!	!	!	!
.	.	.	.	4b/	voſ-	.	.	.	.
4D/	-tro	4f\	-tro	4a/	-tro	.	.	4dd\	-tro
2A\	ve-	2e\	ve-	2a/	ve-	.	.	2cc#X\	ve-
=31-	=31-	=31-	=31-	=31-	=31-	=31-	=31-	=31-	=31-
2D/	-lo	1d	-lo	2a/	-lo	2r	.	1dd	-lo
2G\	In	.	.	2b#/	In	2g\	In	.	.
=32-	=32-	=32-	=32-	=32-	=32-	=32-	=32-	=32-	=32-
1G	lor	2r	.	1bny	lor	1g	lor	2r	.
.	.	2G/	In	.	.	.	.	2dd\	In
=33-	=33-	=33-	=33-	=33-	=33-	=33-	=33-	=33-	=33-
!	!	!	!	!	!	!LO:SIC:v:t=custos g	!	!	!
4r	.	2c/	lor	4r	.	2g\	Che	2ee\	lor
4c\	Che	.	.	4gg\	Che	.	.	.	.
!LO:SIC:v:t=custos B-	!	!	!	!	!	!	!	!	!
!	!	!	!	!	!	!LO:LB:g=original	!	!	!
4c\	per	2r	.	4.gg\	per	4g\	per	2r	.
!LO:N:acc=#	!	!	!	!	!	!	!	!	!
!LO:LB:g=original	!	!	!	!	!	!	!	!	!
4Bn\	pia-	.	.	.	.	4g\	pia-	.	.
.	.	.	.	8ff\	pia-	.	.	.	.
=34-	=34-	=34-	=34-	=34-	=34-	=34-	=34-	=34-	=34-
8c\	-cer	4r	.	8ee\	-cer	2g\	-cer	4r	.
8C/	ſa-	.	.	8ee\	ſa-	.	.	.	.
8E/	-re-	4c/	Che	8ee\	-re-	.	.	4gg\	Che
8F/	ſte	.	.	8ee\	ſte	.	.	.	.
2G\	vi-	4c/	per	2dd\	vi-	4r	.	4.gg\	per
!	!	!LO:N:acc=#	!	!	!	!	!	!	!
.	.	4Bn/	pia-	.	.	4g\	Che	.	.
.	.	.	.	.	.	.	.	8ff\	pia-
=35-	=35-	=35-	=35-	=35-	=35-	=35-	=35-	=35-	=35-
4C/	-vi	8c/	-cer	4cc\	-vi	4g\	per	4ee\	-cer
.	.	8B-ny/	ſa-	.	.	.	.	.	.
4c\	/Che	8A/	-re-	4cc\	che	4f#X\	pia-	4r	.
!	!	!LO:SIC:v:t=custos G	!	!	!	!	!	!	!
.	.	8A/	ſte	.	.	.	.	.	.
!	!	!LO:LB:g=original	!	!	!	!	!	!	!
4c\	per	2G/	vi-	4.gg\	per	4g\	-cer	2r	.
!LO:N:acc=#	!	!	!	!	!	!	!	!	!
4Bn\	pia-	.	.	.	.	4d/	ſa-	.	.
!	!	!	!	!LO:SIC:v:t=custos ee	!	!	!	!	!
.	.	.	.	8ff\	pia-	.	.	.	.
=36-	=36-	=36-	=36-	=36-	=36-	=36-	=36-	=36-	=36-
!	!	!	!	!LO:LB:g=original	!	!	!	!	!
8c\	-cer	4g\	-vi	8ee\	-cer	4e/	-re-	4r	.
8C/	ſa-	.	.	8ee\	ſa-	.	.	.	.
8E/	-re-	4c/	/Che	8ee\	-re-	4g\	-ſte	4gg\	Che
8F/	ſte	.	.	8ee\	ſte	.	.	.	.
2G\	vi-	4c/	per	2dd\	vi-	2g\	vi-	4.gg\	per
.	.	4Bnny/	pia-	.	.	.	.	.	.
.	.	.	.	.	.	.	.	8ff\	pia-
=37-	=37-	=37-	=37-	=37-	=37-	=37-	=37-	=37-	=37-
2C/	-vi/	8c/	-cer	2cc\	-vi	8g\	-vi	8ee\	-cer
.	.	8c/	ſa-	.	.	8g\	ſa-	8ee\	ſa-
.	.	8e\	-re-	.	.	8cc\	-re-	8ee\	-re-
!	!	!	!	!	!	!	!	!LO:SIC:v:t=custos dd	!
.	.	8f\	ſte	.	.	8cc\	ſte	8ee\	-ſte
!	!	!	!	!	!	!LO:N:acc=#	!	!	!
!	!	!	!	!	!	!	!	!LO:LB:g=original	!
2r	.	2g\	vi-	2r	.	2bn\	vi-	2dd\	vi-
=38-	=38-	=38-	=38-	=38-	=38-	=38-	=38-	=38-	=38-
2r	.	2c\	-vi	2r	.	1cc	-vi	2ee\	-vi
2.c\	Hor	2e\	Hor	2.gg\	Hor	.	.	2.ccny\	Hor
=39-	=39-	=39-	=39-	=39-	=39-	=39-	=39-	=39-	=39-
.	.	2a\	è	.	.	0r	.	.	.
2d\	è	.	.	2ff\	è	.	.	2a/	è
.	.	2d\	ſpar-	.	.	.	.	.	.
!LO:SIC:v:t=custos A	!	!	!	!	!	!	!	!	!
4B-ny\	ſpar-	.	.	4dd\	ſpar-	.	.	4g/	ſpar-
=40-	=40-	=40-	=40-	=40-	=40-	=40-	=40-	=40-	=40-
!LO:LB:g=original	!	!	!	!	!	!	!	!	!
2A\	-ti-	2e\	-ti-	2cc#X\	-ti-	.	.	2a/	-ti-
4A\	-to	4e\	-to	4cc#\	-to	.	.	4a/	-to
4r	.	4r	.	4r	.	.	.	4r	.
=41-	=41-	=41-	=41-	=41-	=41-	=41-	=41-	=41-	=41-
2r	.	2r	.	2r	.	2r	.	2r	.
!	!	!	!	!	!	!	!	!LO:N:acc=#	!
2G\	E	2d\	E	2dd\	E	2g\	E	2bn/	E
=42-	=42-	=42-	=42-	=42-	=42-	=42-	=42-	=42-	=42-
!	!	!	!	!	!	!LO:SIC:v:t=custos g	!	!	!
1G	voi	1d	voi	1dd	voi	1g	voi	1bny	voi
=43-	=43-	=43-	=43-	=43-	=43-	=43-	=43-	=43-	=43-
!	!	!	!	!	!	!LO:LB:g=original	!	!	!
1G	ſa-	4r	.	4r	.	4r	.	4r	.
!	!	!	!	!LO:N:acc=#	!	!	!	!	!
.	.	4d\	E	4bn/	E	4g\	E	4dd\	/E
!	!	!LO:SIC:v:t=custos g	!	!	!	!	!	!	!
.	.	4d\	voi	4b/	voi	4g\	voi	4dd\	voi/
!	!	!LO:LB:g=original	!	!	!	!	!	!	!
.	.	4g\	ſa-	4b/	ſa-	4d/	ſa-	4dd\	ſa-
=44-	=44-	=44-	=44-	=44-	=44-	=44-	=44-	=44-	=44-
1C	-re-	4e\	-re-	4ccny\	-re-	4g\	-re-	4ee\	-re-
!	!	!	!	!LO:SIC:v:t=custos ee	!	!	!	!	!
.	.	4d\	ſte	4dd\	ſte	4fny\	ſte	4ff\	-ſte
!	!	!	!	!LO:LB:g=original	!	!	!	!	!
.	.	8c/	fiu-	8ee\	fiu-	8e/	fiu-	8gg\	fiu-
.	.	8d\	.	8dd\	.	8f\	.	8ff\	.
.	.	8e\	.	8cc\	.	8g\	.	8ee\	.
!	!	!	!	!	!	!	!	!LO:SIC:v:t=custos gg	!
.	.	8d\	.	8dd\	.	8f\	.	8ff\	.
=45-	=45-	=45-	=45-	=45-	=45-	=45-	=45-	=45-	=45-
!	!	!	!	!	!	!	!	!LO:LB:g=original	!
1C	ſte	8c\	.	8ee\	.	8e/	.	8gg\	.
.	.	8d\	.	8ff\	.	8d/	.	8ff\	.
.	.	8e\	.	8gg\	.	8c/	.	8ee\	.
.	.	8f\	.	8ff\	.	8d/	.	8dd\	.
.	.	4g\	.	8ee\	.	8e/	.	8cc\	.
.	.	.	.	8dd\	.	8f\	.	8dd\	.
.	.	4G/	.	8cc\	.	8g\	.	8ee\	.
!	!	!	!	!	!	!	!	!LO:TX:t=P:problem:brak jednej ósemki 	!
.	.	.	.	8b-\	.	8e/	.	8ryy	.
=46-	=46-	=46-	=46-	=46-	=46-	=46-	=46-	=46-	=46-
2D/	fiu-	1d	.	4a/	.	4f#X\	.	1dd	-mi
.	.	.	.	4g/	.	2g\	.	.	.
2D/	-mi	.	.	2a/	.	.	.	.	.
.	.	.	.	.	.	4f#X\	.	.	.
=47-	=47-	=47-	=47-	=47-	=47-	=47-	=47-	=47-	=47-
!	!	!	!	!LO:N:acc=#	!	!LO:SIC:v:t=custos g	!	!	!
2r	.	2G/	mi	2bn/	-mi	2g\	-mi	2r	.
!	!	!	!	!	!	!	!	!LO:N:acc=#	!
!	!	!	!	!	!	!LO:LB:g=original	!	!	!
2G\	E	2d\	e	2dd\	E	4r	.	2bn/	E
.	.	.	.	.	.	4g\	E	.	.
=48-	=48-	=48-	=48-	=48-	=48-	=48-	=48-	=48-	=48-
1G	voi	1d	voi	1dd	voi	1g	voi	1bny	voi
=49-	=49-	=49-	=49-	=49-	=49-	=49-	=49-	=49-	=49-
1G	ſa-	4r	.	4r	.	4r	.	4r	.
.	.	4d\	E	4b#/	E	4g\	E	4dd\	E
.	.	4d\	voi	4bny/	voi	4g\	voi	4dd\	voi
!	!	!	!	!LO:SIC:v:t=custos CC	!	!	!	!	!
.	.	4g\	ſa-	4b/	ſa-	4d/	ſa-	4dd\	ſa-
=50-	=50-	=50-	=50-	=50-	=50-	=50-	=50-	=50-	=50-
!	!	!	!	!LO:LB:g=original	!	!	!	!	!
1C	-re-	4e\	-re-	4cc\	-re-	4g\	-re-	4ee\	-re-
!	!	!LO:SIC:v:t=custos c	!	!	!	!	!	!	!
.	.	4d\	ſte	4dd\	ſte	4fny\	ſte	4ff\	-ſte
!	!	!LO:LB:g=original	!	!	!	!	!	!	!
.	.	8c/	fiu-	8ee\	fiu-	8e\	fiu-	8gg\	fiu-
.	.	8d\	.	8dd\	.	8f\	.	8ff\	.
.	.	8e\	.	8cc\	.	8g\	.	8ee\	.
.	.	8d\	.	8dd\	.	8f\	.	8ff\	.
=51-	=51-	=51-	=51-	=51-	=51-	=51-	=51-	=51-	=51-
1C	-ſte	8c\	.	8ee\	.	8e/	.	8gg\	.
.	.	8d\	.	8ff\	.	8d/	.	8ff\	.
.	.	8e\	.	8gg\	.	8c/	.	8ee\	.
.	.	8f\	.	8ff\	.	8d/	.	8dd\	.
!	!	!	!	!	!	!	!	!LO:LB:g=original	!
.	.	4g\	.	8ee\	.	8e/	.	8cc\	.
.	.	.	.	8dd\	.	8f\	.	8dd\	.
.	.	4G/	.	8cc\	.	8g\	.	4ee\	.
.	.	.	.	8b\	.	8e/	.	.	.
=52-	=52-	=52-	=52-	=52-	=52-	=52-	=52-	=52-	=52-
1D	fiu-	1d	.	4a/	.	4f#X\	.	00dd	-mi.
.	.	.	.	4g/	.	2g\	.	.	.
.	.	.	.	2a/	.	.	.	.	.
.	.	.	.	.	.	4f#X\	.	.	.
=53-	=53-	=53-	=53-	=53-	=53-	=53-	=53-	=53-	=53-
00G	-mi.	00d	-mi.	00bn	-mi.	00g	-mi.	.	.
=54-	=54-	=54-	=54-	=54-	=54-	=54-	=54-	=54-	=54-
.	.	.	.	.	.	.	.	.	.
=55-	=55-	=55-	=55-	=55-	=55-	=55-	=55-	=55-	=55-
.	.	.	.	.	.	.	.	.	.
=56-	=56-	=56-	=56-	=56-	=56-	=56-	=56-	=56-	=56-
.	.	.	.	.	.	.	.	1ryy	.
=-	=-	=-	=-	=-	=-	=-	=-	=-	=-
*-	*-	*-	*-	*-	*-	*-	*-	*-	*-
!!!system-decoration: [(s1,s2,s3,s4,s5)]
!!!ENC: Marta Opryszak
!!!END: 2022-06-10
!!!ENC: Urszula Świątek
!!!END: 2022-07-21
